X: 34228
T: Reel Ste-Louise
R: reel
M: 4/4
K: Dmajor
Ad|:f3f edeg|fafd Adfd|eA2A Acec|dcde fdAd|
f3f edeg|fafd Adfd|eA2A Acec|1 dfec d2 Ad:|2 dfec d2 ef||
|:gbge Aceg|fafd Adfd|eA2A Acec|dcde f2 ef|
gbge Aceg|fafd Adfd|eA2A Acec|1 dfec d2 ef:|2 dfec d2 Ad||

